X: 129012
T: The TANK
%R: reel
B: James Kerr "Merry Melodies" v.1 p.29 s.0 #12
Z: 2016 John Chambers <jc:trillian.mit.edu>
N: Straight-line slurs transcribed as (.nn.) because ABC doesn't have that ornament.
M: 2/4
L: 1/16
K: A
[|\
vA2a2 F2f2 | E2ed cBA2 |\
cde2 def2 | e2g2 a4 |\
vA2a2 F2f2 | E2ed cBA2 |\
cde2 def2 | e2g2 a4 ||
vc2cd (.e2.e2) | fddB BGGE |\
c2(cd) ecae | fdBG A2A2 |\
c2cd (.e2.e2) | fddB BGGE |\
c2(cd) ecae | fdBG A2z2 |]

%%sep 1 1 500
%%sep 1 1 500

